symbols/web/alarm_add/materialsymbolsrounded/alarm_add_wght500grad200_24px.svg

<svg xmlns="http://www.w3.org/2000/svg" height="24" width="24"><path d="M12 17.3q.55 0 .938-.375.387-.375.387-.925v-1.7H15q.55 0 .938-.388.387-.387.387-.937t-.375-.938q-.375-.387-.925-.387h-1.7V9.975q0-.55-.387-.938Q12.55 8.65 12 8.65q-.55 0-.938.375-.387.375-.387.925v1.7H9q-.55 0-.938.387-.387.388-.387.938 0 .55.375.937.375.388.925.388h1.7v1.675q0 .55.387.938.388.387.938.387Zm0 5.525q-2.05 0-3.837-.775-1.788-.775-3.138-2.125-1.35-1.35-2.125-3.137Q2.125 15 2.125 12.95q0-2.025.775-3.825.775-1.8 2.125-3.15 1.35-1.35 3.138-2.113Q9.95 3.1 12 3.1q2.05 0 3.838.762 1.787.763 3.137 2.113T21.1 9.112q.775 1.788.775 3.838t-.775 3.838q-.775 1.787-2.125 3.137t-3.137 2.125q-1.788.775-3.838.775Zm0-9.875ZM3.1 7.175q-.35.375-.888.375-.537 0-.937-.425Q.9 6.75.9 6.213q0-.538.375-.938l3.05-3.05q.375-.375.913-.375.537 0 .912.4.375.375.388.925.012.55-.363.925Zm17.775-.025-3.05-3.075q-.375-.35-.375-.888 0-.537.4-.937.375-.375.913-.375.537 0 .912.375L22.75 5.3q.375.375.375.913 0 .537-.4.937-.375.375-.925.375t-.925-.375ZM12 20q2.925 0 4.975-2.062 2.05-2.063 2.05-4.988 0-2.9-2.062-4.963-2.063-2.062-4.988-2.062-2.925 0-4.962 2.05-2.038 2.05-2.038 4.975 0 2.95 2.038 5Q9.05 20 12 20Z"/></svg>

<svg xmlns="http://www.w3.org/2000/svg" height="24" width="24"><path d="M12 17.3Q12.55 17.3 12.938 16.925Q13.325 16.55 13.325 16V14.3H15Q15.55 14.3 15.938 13.912Q16.325 13.525 16.325 12.975Q16.325 12.425 15.95 12.037Q15.575 11.65 15.025 11.65H13.325V9.975Q13.325 9.425 12.938 9.037Q12.55 8.65 12 8.65Q11.45 8.65 11.062 9.025Q10.675 9.4 10.675 9.95V11.65H9Q8.45 11.65 8.062 12.037Q7.675 12.425 7.675 12.975Q7.675 13.525 8.05 13.912Q8.425 14.3 8.975 14.3H10.675V15.975Q10.675 16.525 11.062 16.913Q11.45 17.3 12 17.3ZM12 22.825Q9.95 22.825 8.163 22.05Q6.375 21.275 5.025 19.925Q3.675 18.575 2.9 16.788Q2.125 15 2.125 12.95Q2.125 10.925 2.9 9.125Q3.675 7.325 5.025 5.975Q6.375 4.625 8.163 3.862Q9.95 3.1 12 3.1Q14.05 3.1 15.838 3.862Q17.625 4.625 18.975 5.975Q20.325 7.325 21.1 9.112Q21.875 10.9 21.875 12.95Q21.875 15 21.1 16.788Q20.325 18.575 18.975 19.925Q17.625 21.275 15.838 22.05Q14.05 22.825 12 22.825ZM12 12.95Q12 12.95 12 12.95Q12 12.95 12 12.95Q12 12.95 12 12.95Q12 12.95 12 12.95Q12 12.95 12 12.95Q12 12.95 12 12.95Q12 12.95 12 12.95Q12 12.95 12 12.95ZM3.1 7.175Q2.75 7.55 2.212 7.55Q1.675 7.55 1.275 7.125Q0.9 6.75 0.9 6.213Q0.9 5.675 1.275 5.275L4.325 2.225Q4.7 1.85 5.238 1.85Q5.775 1.85 6.15 2.25Q6.525 2.625 6.538 3.175Q6.55 3.725 6.175 4.1ZM20.875 7.15 17.825 4.075Q17.45 3.725 17.45 3.187Q17.45 2.65 17.85 2.25Q18.225 1.875 18.763 1.875Q19.3 1.875 19.675 2.25L22.75 5.3Q23.125 5.675 23.125 6.213Q23.125 6.75 22.725 7.15Q22.35 7.525 21.8 7.525Q21.25 7.525 20.875 7.15ZM12 20Q14.925 20 16.975 17.938Q19.025 15.875 19.025 12.95Q19.025 10.05 16.963 7.987Q14.9 5.925 11.975 5.925Q9.05 5.925 7.013 7.975Q4.975 10.025 4.975 12.95Q4.975 15.9 7.013 17.95Q9.05 20 12 20Z"/></svg>
